X: 7004
T: Chicken That Made The Soup, The
R: jig
M: 6/8
K: Gmajor
|:gdB cde|dBG ABA|G>AG GBd|g2a abb|
gdB cde|dBG ABA|D>GG ABA|GAG G2d:|
edd Bdd|gdd Bcd|ded Bcd|gag g2d|
edd Bdd|gdd Bcd|AcB AGF|G3 G2d|
edd Bdd|gdd Bcd|ded Bcd|g2a abb|
gag faf|ege d2B|deg aba|g2a b2a|

